X: 36
T:Dick's Maggot
M:3/2l
L:1/8
Q:200
K:G
g2 d4 B4 A2|Bc d2 AB c2 B4|g2 d4 B4 A2|Bc d2 G2 F2 G4|g2 d4 B4 A2| Bc d2 AB c2 B4|g2 d4 B4 A2|Bc d2 G2 F2 G4:|
|:f2 a4 f4 d2|ga b2 ef g2 f4| f2 a4 f4 d2|de f2 AB ^c2 d4|Bc d2 Bc d2 e4|ef g2 ef g2 f4|g2 d4 B4 c2| A6 G4:|

